js-exam/assets/images/facebook.svg

<svg width="40" height="40" viewBox="0 0 40 40" fill="none" xmlns="http://www.w3.org/2000/svg">
<path d="M23.7188 21H21.375V28H18.25V21H15.6875V18.125H18.25V15.9062C18.25 13.4062 19.75 12 22.0312 12C23.125 12 24.2812 12.2188 24.2812 12.2188V14.6875H23C21.75 14.6875 21.375 15.4375 21.375 16.25V18.125H24.1562L23.7188 21Z" fill="white"/>
<circle opacity="0.4" cx="20" cy="20" r="19.5" stroke="white"/>
</svg>

<svg width="40" height="40" fill="none" xmlns="http://www.w3.org/2000/svg"><path d="M23.719 21h-2.344v7H18.25v-7h-2.563v-2.875h2.563v-2.219c0-2.5 1.5-3.906 3.781-3.906 1.094 0 2.25.219 2.25.219v2.469H23c-1.25 0-1.625.75-1.625 1.562v1.875h2.781L23.72 21Z" fill="#fff"/><circle opacity=".4" cx="20" cy="20" r="19.5" stroke="#fff"/></svg>
